src/assets/svg/benefit-img1.svg

<svg width="52" height="46" viewBox="0 0 52 46" fill="none" xmlns="http://www.w3.org/2000/svg">
<path d="M38.5278 26.5478L38.5278 26.5477L45.318 18.7232C46.0535 17.8757 47.3421 17.7844 48.1892 18.5194C48.635 18.9064 48.8906 19.4671 48.8906 20.0583C48.8906 20.5469 48.7138 21.02 48.3924 21.3904L39.099 32.1001C37.9905 33.2914 36.4409 33.9959 34.961 33.9959H24.6716C23.6983 33.9959 22.7482 34.1849 21.8489 34.5575C20.9496 34.9302 20.1443 35.4682 19.4559 36.1565L17.4769 38.1356C17.0761 38.5363 17.0761 39.1864 17.4769 39.5872C17.6774 39.7877 17.9404 39.8878 18.2027 39.8878C18.4653 39.8878 18.7282 39.7873 18.9283 39.5877L18.9285 39.5875L20.9075 37.6085C21.9134 36.6026 23.2493 36.0492 24.6716 36.0492H34.961C36.0217 36.0492 37.0693 35.8104 38.0735 35.3421L38.0736 35.3421C39.0205 34.9006 39.8993 34.2581 40.6163 33.4833L40.6164 33.4834L40.6192 33.4802L40.6357 33.4618L40.6357 33.4618L40.6382 33.4589L49.9428 22.736C50.5879 21.9927 50.9432 21.0416 50.9432 20.0583C50.9432 18.8723 50.4298 17.7461 49.5345 16.9691L49.5344 16.969C47.8316 15.4919 45.2447 15.6752 43.7673 17.3777L43.9561 17.5416L43.7673 17.3777L36.9771 25.2022L36.977 25.2023C36.6058 25.6304 36.6515 26.2787 37.0796 26.6503L37.0797 26.6504C37.5078 27.0216 38.1561 26.9759 38.5278 26.5478Z" fill="#00C700" stroke="#00C700" stroke-width="0.5"/>
<path d="M12.8401 45.2501C12.5677 45.2501 12.3068 45.1419 12.1143 44.9495L1.05066 33.8855C1.05066 33.8855 1.05066 33.8855 1.05066 33.8855C0.85819 33.693 0.75 33.4317 0.75 33.1597C0.75 32.8876 0.858191 32.6264 1.05066 32.4339L6.41345 27.0711C6.81423 26.6703 7.46428 26.6703 7.86505 27.0711L18.9287 38.1348C19.3295 38.5355 19.3295 39.1856 18.9287 39.5864L13.5661 44.9489L12.8401 45.2501ZM12.8401 45.2501C13.1125 45.2501 13.3735 45.1419 13.5659 44.9491L12.8401 45.2501ZM12.8401 42.7717L3.22807 33.1597L7.13925 29.2485L16.7513 38.8606L12.8401 42.7717Z" fill="#00C700" stroke="#00C700" stroke-width="0.5"/>
<path d="M36.7307 25.9664L36.7316 25.9759L36.7319 25.978C36.7369 26.0298 36.7394 26.086 36.7394 26.1453C36.7394 27.2103 35.8721 28.0775 34.8066 28.0775H23.8888C23.3221 28.0775 22.8624 28.5372 22.8624 29.1039C22.8624 29.6707 23.3221 30.1304 23.8888 30.1304H34.8063C37.0042 30.1304 38.792 28.3429 38.7927 26.145V26.145C38.7927 26.0207 38.7868 25.8974 38.7754 25.7785C38.6917 24.8547 38.2833 23.9846 37.6253 23.3266C36.8728 22.5741 35.8713 22.1592 34.8069 22.1592H14.3807C13.4073 22.1592 12.4573 22.3485 11.558 22.7207C10.6587 23.0931 9.85337 23.6311 9.16497 24.3195L6.41338 27.0711L6.59015 27.2479L6.41337 27.0711C6.0126 27.4719 6.0126 28.1219 6.41337 28.5227C6.81415 28.9235 7.4642 28.9235 7.86498 28.5227L10.6166 25.7711C11.6221 24.7655 12.9581 24.2121 14.3804 24.2121H34.8066C35.3236 24.2121 35.8081 24.4129 36.1734 24.7782C36.493 25.0981 36.6907 25.5205 36.7307 25.9664Z" fill="#00C700" stroke="#00C700" stroke-width="0.5"/>
<path d="M24.8066 23.1859C24.8066 23.7526 25.2664 24.2123 25.8331 24.2123C26.4003 24.2123 26.8596 23.7525 26.8596 23.1856V1.77647C26.8596 1.20972 26.3999 0.75 25.8331 0.75C25.2664 0.75 24.8066 1.20972 24.8066 1.77647V23.1859Z" fill="#00C700" stroke="#00C700" stroke-width="0.5"/>
<path d="M19.2489 10.8975L19.2489 10.8975C17.4785 10.1663 16.0974 8.7886 15.3625 7.01944L15.3625 7.01944L14.7446 5.53186L14.7445 5.53177C14.6402 5.28047 14.6397 4.99781 14.7437 4.74615C14.8476 4.49471 15.0473 4.29459 15.2984 4.1902L15.2985 4.19018L16.7861 3.57224C16.7861 3.57224 16.7861 3.57224 16.7861 3.57224C18.5552 2.83731 20.506 2.8353 22.2764 3.56621L22.2765 3.56622C24.0469 4.29746 25.4279 5.67511 26.1629 7.44427L25.932 7.54017L26.1629 7.44427L26.7808 8.93176C26.7808 8.93179 26.7808 8.93182 26.7808 8.93185C26.9984 9.45531 26.7504 10.0562 26.2265 10.2735L19.2489 10.8975ZM19.2489 10.8975C20.1315 11.2619 21.0591 11.4444 21.9872 11.4444C22.9204 11.4444 23.853 11.2599 24.739 10.8915C24.739 10.8915 24.739 10.8914 24.7391 10.8914L26.2264 10.2736L19.2489 10.8975ZM17.2584 6.23202L17.2584 6.23197L17.034 5.6921L17.5738 5.46754C17.5738 5.46752 17.5739 5.4675 17.5739 5.46748C20.1812 4.38462 23.184 5.6245 24.2673 8.23171L24.2673 8.23174L24.4916 8.77152L23.9518 8.99587L24.0478 9.22672L23.9518 8.99587C22.6883 9.52104 21.2973 9.52229 20.0328 9.00017L20.0327 9.00017C18.7679 8.47806 17.7833 7.49561 17.2584 6.23202Z" fill="#00C700" stroke="#00C700" stroke-width="0.5"/>
<path d="M29.7065 19.2314H29.7064C28.7732 19.2314 27.8406 19.0469 26.9544 18.6788L26.9544 18.6788L25.4669 18.0609L25.4668 18.0609L25.5627 17.83C25.3725 17.7511 25.2214 17.5997 25.1427 17.4094C25.0641 17.2192 25.0645 17.0053 25.1434 16.8151L29.7065 19.2314ZM29.7065 19.2314C30.6345 19.2311 31.5624 19.049 32.445 18.6849L32.4451 18.6848C34.2155 17.9536 35.5965 16.576 36.3315 14.8068L36.1006 14.7109L36.3315 14.8068L36.9494 13.3192L36.9495 13.3191C37.1667 12.7956 36.9186 12.1952 36.3953 11.9776L36.3952 11.9775L34.9076 11.3596C34.9076 11.3596 34.9076 11.3596 34.9076 11.3596C33.1384 10.6243 31.1877 10.6223 29.4172 11.3536C27.6467 12.0848 26.2657 13.4625 25.5308 15.2316L29.7065 19.2314ZM34.6599 13.4789L34.4356 14.0187L34.4355 14.0187C33.3523 16.626 30.3494 17.8661 27.7421 16.7829C27.7421 16.7829 27.7421 16.7829 27.7421 16.7829L27.2023 16.5585L27.4267 16.0184C27.4267 16.0184 27.4267 16.0184 27.4267 16.0184C27.9519 14.7548 28.9366 13.7723 30.2011 13.2502C31.4656 12.7281 32.8565 12.7297 34.1201 13.2545C34.1201 13.2546 34.1202 13.2546 34.1202 13.2546L34.6599 13.4789Z" fill="#00C700" stroke="#00C700" stroke-width="0.5"/>
</svg>

<svg xmlns="http://www.w3.org/2000/svg" width="52" height="46" fill="none"><path fill="#00C700" stroke="#00C700" stroke-width=".5" d="m38.528 26.548 6.79-7.825a2.036 2.036 0 0 1 3.074 2.667L39.1 32.1c-1.108 1.191-2.658 1.896-4.138 1.896h-10.29a7.3 7.3 0 0 0-2.822.561 7.3 7.3 0 0 0-2.393 1.6l-1.98 1.979a1.027 1.027 0 0 0 1.452 1.452l1.98-1.98a5.3 5.3 0 0 1 3.764-1.559H34.96c1.06 0 2.108-.239 3.113-.707a8.3 8.3 0 0 0 2.542-1.859l.003-.003.017-.018.002-.003 9.305-10.723a4.086 4.086 0 0 0-.408-5.767 4.093 4.093 0 0 0-5.768.409l.19.164-.19-.164-6.79 7.824a1.027 1.027 0 0 0 1.55 1.345Z"/><path fill="#00C700" stroke="#00C700" stroke-width=".5" d="M12.84 45.25a1.03 1.03 0 0 1-.726-.3L1.051 33.885a1.027 1.027 0 0 1 0-1.451l5.362-5.363c.401-.4 1.051-.4 1.452 0L18.93 38.135c.4.4.4 1.05 0 1.451l-5.363 5.363zm0 0c.273 0 .534-.108.726-.3zm0-2.478L3.228 33.16l3.911-3.911 9.612 9.612z"/><path fill="#00C700" stroke="#00C700" stroke-width=".5" d="m36.73 25.966.002.01v.002q.007.078.007.167a1.935 1.935 0 0 1-1.932 1.933H23.889a1.027 1.027 0 0 0 0 2.052h10.917a3.99 3.99 0 0 0 3.987-3.985q0-.187-.018-.366a3.98 3.98 0 0 0-1.15-2.452 3.96 3.96 0 0 0-2.818-1.168H14.38c-.974 0-1.924.19-2.823.562-.9.372-1.705.91-2.393 1.599l-2.751 2.75.177.177-.177-.177a1.027 1.027 0 0 0 1.452 1.452l2.752-2.752a5.3 5.3 0 0 1 3.763-1.559h20.427a1.93 1.93 0 0 1 1.924 1.754Z"/><path fill="#00C700" stroke="#00C700" stroke-width=".5" d="M24.807 23.186a1.027 1.027 0 0 0 2.053 0V1.776a1.027 1.027 0 0 0-2.053 0z"/><path fill="#00C700" stroke="#00C700" stroke-width=".5" d="M19.249 10.898a7.13 7.13 0 0 1-3.886-3.879l-.618-1.487a1.027 1.027 0 0 1 .553-1.342l1.488-.618a7.13 7.13 0 0 1 5.49-.006 7.13 7.13 0 0 1 3.887 3.878l-.231.096.23-.096.619 1.488a1.026 1.026 0 0 1-.554 1.342zm0 0c.883.364 1.81.546 2.738.546.933 0 1.866-.184 2.752-.553l1.487-.617zm-1.99-4.666-.225-.54.54-.224a5.127 5.127 0 0 1 6.693 2.764l.225.54-.54.224.096.23-.096-.23a5.1 5.1 0 0 1-3.92.004 5.08 5.08 0 0 1-2.774-2.768Zm12.448 12.999a7.2 7.2 0 0 1-2.753-.552l-1.487-.618.096-.231a.777.777 0 0 1-.42-1.015zm0 0c.927 0 1.855-.182 2.738-.546a7.13 7.13 0 0 0 3.886-3.878l-.23-.096.23.096.618-1.488a1.027 1.027 0 0 0-.554-1.341l-1.487-.618a7.13 7.13 0 0 0-5.49-.006 7.13 7.13 0 0 0-3.887 3.878zm4.953-5.752-.224.54a5.127 5.127 0 0 1-6.694 2.764l-.54-.225.225-.54A5.1 5.1 0 0 1 30.2 13.25a5.1 5.1 0 0 1 3.92.005z"/></svg>
